X: 35
T: POLKAS: Ballinafad Set
T: Ballinafad
C: C: Trad. / Niel Gow / Trad.; S: Seamus Hernon / Ann Kelsey; J. Morrison & J. McKenna
C: Set Leaders: Mars, Anton
Z: Mars Agliullin ed., Oleg Naumov arr., Anton Zille ed.; gian marco / ceolachan at The Session
N: https://thesession.org/members/26966/sets/94260
R: Polka
M: 2/4
L: 1/8
Q: 1/4=140
K: Gmaj
"G"BB/A/ "(D/F#)"BB/A/|"G/B"BG G>B|"A"AG FG|"D"AB "D/F#"cd|
"G"B/c/B/A/ "(D/F#)"B/c/B/A/|"G/B"BG G>B|"A"AG FE|"D"D2 DB/c/|
"G"de d>B|"D"cA d2|"G/B"BG "D"EF|"G"GF "D"ED|
"G"B/c/B/A/ "D/F#"B/c/B/A/|"G/B"BG GG/E/|"A"DG "D"F/G/A/F/|"G"G2 G2||
|:"G"b2 "(D/F#)"b/a/g/f/|"Em"g2ge|"D"f2 f/e/d/B/|"C"c2cd/c/|
"G/B"BG gd|"C"cA "G"B/c/d|1 "C"e2 "D"f2|"G"g2 "D"d2:|2 "C"e2 "D"f2|"G"g2 g2||
T: Farewell to Whiskey
K: Gmaj
|:"G"DG "D"B/A/G/A/|"Em"BE EG/E/|"G"DG "D"B/A/G/B/|"G"dB "Bm"Bd|
"C"e/f/g/e/ "G/B"dB|"Am"c/B/A/G/ AB|"D"DG "D/F#"B/A/G/A/|1 "G/B"BG "G"GG/E/:|2 "G/B"BG "G"G2||
|:"G"dB/d/ "(G/B)"g>d|"C"e/f/g/e/ "G/B"dB|"G"dB/d/ "(G/B)"gd|"D"ef "G"g>d|
"Em"e/f/g/e/ "(D)"dB|"Am"c/B/A/G/ AB|"D"DG "D/F#"B/A/G/A/|1 "G/B"BG "G"G2:|2 "G/B"BG "G"G2||
T: Dark Girl Dressed in Blue
K: Dmaj
|:"D"FA A>d|"G"Bd "D/F#"A>F|"D/B"GB "D/F#"AF/A/|"Em"BE "A"G/F/E/D/|
"D"FA Ad|"G"Bd "D/F#"AF|"D/B"GB "A"A/B/A/G/|1 "D/F#"FD "D"D>E:|2 "D/F#"FD "D"D2 ||
|:"D"FA A/B/d/e/|"G"ff/d/ "D/F#"ed|"D/B"B/c/d/B/ "D/F#"AF/A/|"Em"BE "A"G/F/E/D/|
"D"FA A/B/d/e/|"G"ff/d/ "D/F#"ed|"D/B"BB "A"A/B/A/G/|1 "D/F#"FD "D"D2 :|2 "D/F#"FD "D"D>E||

